X:3
T:Sonata 6
T:3. Soave
C:Telemann
M:3/8
L:1/16
K:C
V:1
z2 cded|c2B2A2-|A2B2^G2|A4 z2|z2 z2 fe|d^cdfed|=cBA2e2|f2G2f2-|
fdecdf|e2A2e2-|ecdBce|d2E2d2-|dBcABd|cd Td3e|e6|z6|d6-|
d2c2 z2|f6-|f2e2 z2|a6-|a2g^fg2-|g2=fef2|z2 B2e2-|e2dcd2|
z2 G2c2-|c2_BAB2-|BAGFED|C2_BAB2|e3fge|c2_babg|a_b g3f|fAAAAA|
AGGFED|Cccccc|c_BBAGF|Eeeeee|eddcBA|G3FGE|FcBAGF|E3DEC|
DAGFED|C2ede2-|eedcBA|G3AB^c|d2G2A2|Dfffff|feedcB|Aaaaaa|
aggfed|^c=ccccc|cBBA^G^F|E3fed|ea TB3A|dcBA^G^F|E2dcd2-|d=cBA^G^F|
E2d^cd2|^g3abg|e2dcdB|cd B3A|A4 z2|z2 z2 fe|d^cdfed|=cAcded|c2B2A2-|A2B2^G2|A3BcA|dcBdGB|c3ABG|cBAcFA|B3^GA^F|BA^GBEG|A3^F^GE|A=G TF3E|E6|]
V:2
z6|z2 z2 fe|d^cdfed|cAcded|c2B2A2-|A2B2^G2|A3BcA|dcBdGB|
c3ABG|cBAcFA|B3^GA^F|BA^GBEG|A3^F^GE|AG T=F3E|E6|z c cccc|cBBAGF|
Eeeeee|eddcBA|Gggggg|g^ffedc|B3ABG|AedcBA|G3FGE|FcBAGF|
E3DEC|DAGFED|C2_BAB2-|BAGFED|C2_BAB2|e3fge|f_B c2C2|F4 z2|
_B6-|B2A2 z2|d6-|d2c2 z2|f6-|f2ede2-|e2dcd2|z2 G2c2-|
c2BABf|edcBAG|^F2^fef2-|f2g^fge|=fd Te3d|d4 z2|z g gggg|gffedc|
B_BBBBB|_BAAG^FE|Dddddd|d3^GAB|cC D2E2|F2d^cd2-|d=cBA^G^F|E2d^cd2-|
d=cBA^G^F|E2d^cd2|^g2abg2|ab ^g3a|a2cded|c2B2A2-|A2B2^G2|A4 z2|z2 z2 fe|
d cdfed|=cB A2e2|f2G2f2-|fdecdf|e2F2e2-|ecdBce|d2E2d2-|dBcABd|cd Td3e|e6|]

